X:1
T:Title
%%score ( 1 2 ) { 3 | 4 }
L:1/8
Q:1/4=102
M:4/4
K:Bb
V:1 bass nm="Grand Piano, Soprano"
V:2 bass 
V:3 bass nm="Choir Pad, Everybody May Know"
V:4 bass 
V:1
 [F,D]2 [B,D]2 [B,D][B,D][A,D][A,D] | [G,D]2 [G,E]4 F,2 | F,2 [B,D]2 [B,D][B,D][F,D][F,D]- | %3
w: By~Edwin~Othello~Excell * * * * *|||
 [F,D][G,D] [A,E]6 | [F,E]2[K:treble] [CE]2 [B,E][B,E][A,E][A,E]- | %5
w: ||
 [A,E][K:bass][G,E] [G,E]4 [F,D]2 | z8[K:treble] | z8 | z8 | z2 A6 | z2 [Fe]2 [Ge]2 [Ae][EG]- | %11
w: ||||||
 [EG][EA] D2 E2 D2 | [DF]2 [Ff]2 [Ff][Ff][Fe][Fe]- | [Fe][Fd] [EF]4 [FB]2 | %14
w: |||
 [Ff]2 [Gf]2 [Ge]2 [Fd][Fd]- | [Fd][Ec] [DB]6- | [DB]2 z2 z4 |] %17
w: |||
V:2
 x8 | x8 | x8 | x8 | x2[K:treble] x6 | x[K:bass] x7 | [B,D]2 [G,=E]2[K:treble] [CE]2 [B,E][A,E]- | %7
 [A,E][B,=E] [A,F]2 [B,E]2 [C_E]2- | [CE]2 [Fd]2 [Fd]2 [Fd][DF]- | [DF][DG] E2 E2 E2 | x8 | z2 F6 | %12
 x8 | x8 | x8 | x8 | x8 |] %17
V:3
 F,2 B,2 B,B,A,A, | G,2 G,4 F,2 | F,2 B,2 B,B,F,F,- | F,G, A,6 | F,2 C2 B,B,A,A,- | A,G, G,4 F,2 | %6
 B,2 G,2 C2 B,A,- | A,B, A,2 B,2 C2- | C2 B,2 B,2 B,B,- | B,B, F,2 F,2 C2 | z2 A,2 B,2 CA,- | %11
 A,F, F,2 C2 B,2 | B,2 B,2 B,B,A,A,- | A,B, A,4 B,2 | B,2 B,2 B,2 B,B,- | B,A, B,6- | B,2 z2 z4 |] %17
V:4
 z2 B,,4 B,,2- | B,,2 B,,4 B,,2- | B,,2 B,,4 B,,2- | B,,2 [F,,F,]6 | z2 [F,,F,]4 [F,,F,]2- | %5
 [F,,F,]2 B,,4 B,,2- | B,,2 C,4 C,2- | C,2 [F,,F,]6- | [F,,F,]2 B,,2 B,,2 B,,B,,- | %9
 B,,B,, C,2 C,2 F,2 | z2 F,2 F,2 F,F,- | F, z B,,2 B,,2 B,,2 | B,,2 D,2 D,D,C,C,- | C,B,, C,4 D,2 | %14
 D,2 E,2 E,2 F,F,- | F,F, B,,6- | B,,2 z2 z4 |] %17

